; G-Code generated by Simplify3D(R) Version 3.0.2
; 1ÔÂ 12, 2017 at 10:35:14 ÏÂÎç
; Settings Summary
;   processName,Process1
;   applyToModels,UltimakerRobot_support
;   profileName,me
;   profileVersion,2016-11-28 12:44:58
;   baseProfile,Default
;   printMaterial,PLA
;   printQuality,Medium
;   printExtruders,
;   extruderName,Extruder 1
;   extruderToolheadNumber,0
;   extruderDiameter,0.4
;   extruderAutoWidth,0
;   extruderWidth,0.4
;   extrusionMultiplier,0.9
;   extruderUseRetract,1
;   extruderRetractionDistance,2
;   extruderExtraRestartDistance,0
;   extruderRetractionZLift,0
;   extruderRetractionSpeed,1800
;   extruderUseCoasting,0
;   extruderCoastingDistance,0.2
;   extruderUseWipe,0
;   extruderWipeDistance,5
;   primaryExtruder,0
;   layerHeight,0.2
;   topSolidLayers,3
;   bottomSolidLayers,3
;   perimeterOutlines,2
;   printPerimetersInsideOut,1
;   startPointOption,2
;   startPointOriginX,0
;   startPointOriginY,0
;   startPointOriginZ,300
;   sequentialIslands,0
;   spiralVaseMode,0
;   firstLayerHeightPercentage,90
;   firstLayerWidthPercentage,100
;   firstLayerUnderspeed,0.5
;   useRaft,1
;   raftExtruder,0
;   raftLayers,3
;   raftOffset,3
;   raftSeparationDistance,0.14
;   raftInfill,85
;   disableRaftBaseLayers,0
;   useSkirt,1
;   skirtExtruder,0
;   skirtLayers,1
;   skirtOutlines,2
;   skirtOffset,2
;   usePrimePillar,0
;   primePillarExtruder,999
;   primePillarWidth,12
;   primePillarLocation,7
;   primePillarSpeedMultiplier,1
;   useOozeShield,0
;   oozeShieldExtruder,999
;   oozeShieldOffset,2
;   oozeShieldOutlines,1
;   oozeShieldSidewallShape,1
;   oozeShieldSidewallAngle,30
;   oozeShieldSpeedMultiplier,1
;   infillExtruder,0
;   internalInfillPattern,Rectilinear
;   externalInfillPattern,Rectilinear
;   infillPercentage,40
;   outlineOverlapPercentage,15
;   infillExtrusionWidthPercentage,100
;   minInfillLength,5
;   infillLayerInterval,1
;   infillAngles,45,-45
;   overlapInfillAngles,0
;   generateSupport,0
;   supportExtruder,0
;   supportInfillPercentage,30
;   supportExtraInflation,0
;   denseSupportLayers,0
;   denseSupportInfillPercentage,70
;   supportLayerInterval,1
;   supportHorizontalPartOffset,0.3
;   supportUpperSeparationLayers,1
;   supportLowerSeparationLayers,1
;   supportType,0
;   supportGridSpacing,4
;   maxOverhangAngle,45
;   supportAngles,0
;   temperatureName,Extruder 1 Temperature,Heated Bed
;   temperatureNumber,0,0
;   temperatureSetpointCount,1,1
;   temperatureSetpointLayers,1,1
;   temperatureSetpointTemperatures,200,60
;   temperatureStabilizeAtStartup,1,1
;   temperatureHeatedBed,0,1
;   temperatureRelayBetweenLayers,0,0
;   temperatureRelayBetweenLoops,0,0
;   fanLayers,1,2
;   fanSpeeds,0,100
;   blipFanToFullPower,0
;   adjustSpeedForCooling,1
;   minSpeedLayerTime,15
;   minCoolingSpeedSlowdown,20
;   increaseFanForCooling,0
;   minFanLayerTime,45
;   maxCoolingFanSpeed,100
;   increaseFanForBridging,0
;   bridgingFanSpeed,100
;   use5D,1
;   relativeEdistances,0
;   allowEaxisZeroing,1
;   independentExtruderAxes,0
;   includeM10123,0
;   stickySupport,1
;   applyToolheadOffsets,0
;   gcodeXoffset,0
;   gcodeYoffset,0
;   gcodeZoffset,0
;   overrideMachineDefinition,1
;   machineTypeOverride,0
;   strokeXoverride,200
;   strokeYoverride,200
;   strokeZoverride,200
;   originOffsetXoverride,0
;   originOffsetYoverride,0
;   originOffsetZoverride,0
;   homeXdirOverride,-1
;   homeYdirOverride,-1
;   homeZdirOverride,-1
;   flipXoverride,1
;   flipYoverride,-1
;   flipZoverride,1
;   toolheadOffsets,0,0|0,0|0,0|0,0|0,0|0,0
;   overrideFirmwareConfiguration,1
;   firmwareTypeOverride,RepRap (Marlin/Repetier/Sprinter)
;   GPXconfigOverride,r2
;   baudRateOverride,115200
;   overridePrinterModels,0
;   printerModelsOverride
;   startingGcode,G28 ; home all axes
;   layerChangeGcode,
;   retractionGcode,
;   toolChangeGcode,
;   endingGcode,M104 S0 ; turn off extruder,M140 S0 ; turn off bed,M84 ; disable motors
;   createX3G,0
;   celebration,0
;   celebrationSong,Random Song
;   createMB5G,0
;   postProcessing,
;   defaultSpeed,2400
;   outlineUnderspeed,0.5
;   solidInfillUnderspeed,0.8
;   supportUnderspeed,0.8
;   rapidXYspeed,4800
;   rapidZspeed,1000
;   minBridgingArea,50
;   bridgingExtraInflation,0
;   bridgingExtrusionMultiplier,1
;   bridgingSpeedMultiplier,1
;   filamentDiameter,1.75
;   filamentPricePerKg,46
;   filamentDensity,1.25
;   useMinPrintHeight,0
;   minPrintHeight,0
;   useMaxPrintHeight,0
;   maxPrintHeight,0
;   useDiaphragm,0
;   diaphragmLayerInterval,20
;   robustSlicing,1
;   mergeAllIntoSolid,0
;   onlyRetractWhenCrossingOutline,1
;   retractBetweenLayers,1
;   useRetractionMinTravel,0
;   retractionMinTravel,3
;   retractWhileWiping,0
;   onlyWipeOutlines,1
;   avoidCrossingOutline,0
;   maxMovementDetourFactor,3
;   toolChangeRetractionDistance,12
;   toolChangeExtraRestartDistance,-0.5
;   toolChangeRetractionSpeed,600
;   allowThinWallGapFill,1
;   thinWallAllowedOverlapPercentage,10
;   horizontalSizeCompensation,0
G90
M82
M106 S0
M140 S60
M190 S60
M104 S200 T0
M109 S200 T0
G28 ; home all axes
G92 E0
G1 E-2.0000 F1800
G1 Z0.450 F1000
; layer 1, Z = 0.45
T0
; tool H0.500 W0.400
; skirt
G1 X85.288 Y86.870 F4800
G1 E0.0000 F540
G92 E0
G1 X85.299 Y86.860 E0.0011 F1200
G1 X85.387 Y86.782 E0.0099
G1 X85.399 Y86.772 E0.0111
G1 X86.136 Y86.185 E0.0816
G1 X86.148 Y86.175 E0.0827
G1 X86.242 Y86.108 E0.0914
G1 X86.254 Y86.099 E0.0925
G1 X86.776 Y85.763 E0.1390
G1 X86.789 Y85.756 E0.1401
G1 X86.889 Y85.698 E0.1488
G1 X86.903 Y85.690 E0.1499
G1 X87.725 Y85.271 E0.2190
G1 X87.738 Y85.265 E0.2201
G1 X87.840 Y85.219 E0.2285
G1 X87.854 Y85.213 E0.2296
G1 X88.413 Y84.994 E0.2745
G1 X88.427 Y84.989 E0.2756
G1 X88.533 Y84.953 E0.2840
G1 X88.547 Y84.948 E0.2851
G1 X89.394 Y84.708 E0.3510
G1 X89.407 Y84.705 E0.3520
G1 X89.509 Y84.681 E0.3599
G1 X89.523 Y84.678 E0.3609
G1 X90.073 Y84.575 E0.4028
G1 X90.087 Y84.573 E0.4038
G1 X90.190 Y84.558 E0.4116
G1 X90.204 Y84.557 E0.4127
G1 X90.907 Y84.490 E0.4655
G1 X90.914 Y84.489 E0.4661
G1 X90.968 Y84.486 E0.4701
G1 X90.975 Y84.485 E0.4706
G1 X91.261 Y84.472 E0.4921
G1 X91.268 Y84.471 E0.4926
G1 X91.322 Y84.470 E0.4966
G1 X91.329 Y84.470 E0.4971
G1 X99.032 Y84.462 E1.0736
G1 X99.034 Y84.462 E1.0738
G1 X99.055 Y84.462 E1.0754
G1 X99.058 Y84.462 E1.0756
G1 X99.172 Y84.464 E1.0841
G1 X99.175 Y84.464 E1.0843
G1 X99.196 Y84.465 E1.0859
G1 X99.199 Y84.465 E1.0861
G1 X100.004 Y84.494 E1.1463
G1 X100.692 Y84.467 E1.1979
G1 X100.695 Y84.467 E1.1981
G1 X100.718 Y84.466 E1.1999
G1 X100.721 Y84.466 E1.2001
G1 X100.844 Y84.464 E1.2093
G1 X100.847 Y84.464 E1.2095
G1 X100.870 Y84.463 E1.2112
G1 X100.873 Y84.463 E1.2115
G1 X108.679 Y84.470 E1.7956
G1 X108.686 Y84.470 E1.7962
G1 X108.743 Y84.471 E1.8004
G1 X108.750 Y84.472 E1.8010
G1 X109.055 Y84.487 E1.8238
G1 X109.062 Y84.487 E1.8243
G1 X109.119 Y84.492 E1.8286
G1 X109.126 Y84.492 E1.8291
G1 X109.870 Y84.567 E1.8851
G1 X109.884 Y84.569 E1.8862
G1 X109.993 Y84.585 E1.8944
G1 X110.007 Y84.587 E1.8955
G1 X110.584 Y84.701 E1.9394
G1 X110.598 Y84.705 E1.9405
G1 X110.705 Y84.731 E1.9487
G1 X110.718 Y84.735 E1.9498
G1 X111.591 Y84.996 E2.0180
G1 X111.605 Y85.001 E2.0191
G1 X111.714 Y85.039 E2.0277
G1 X111.727 Y85.045 E2.0288
G1 X112.296 Y85.279 E2.0749
G1 X112.310 Y85.285 E2.0760
G1 X112.414 Y85.334 E2.0846
G1 X112.427 Y85.341 E2.0857
G1 X113.253 Y85.782 E2.1558
G1 X113.266 Y85.790 E2.1569
G1 X113.367 Y85.850 E2.1657
G1 X113.379 Y85.858 E2.1668
G1 X113.898 Y86.207 E2.2136
G1 X113.910 Y86.216 E2.2147
G1 X114.004 Y86.286 E2.2234
G1 X114.016 Y86.295 E2.2246
G1 X114.742 Y86.900 E2.2953
G1 X114.754 Y86.910 E2.2965
G1 X114.840 Y86.989 E2.3052
G1 X114.851 Y87.000 E2.3064
G1 X115.290 Y87.448 E2.3533
G1 X115.300 Y87.459 E2.3545
G1 X115.378 Y87.547 E2.3632
G1 X115.388 Y87.559 E2.3644
G1 X115.975 Y88.296 E2.4349
G1 X115.985 Y88.308 E2.4361
G1 X116.052 Y88.402 E2.4447
G1 X116.061 Y88.414 E2.4459
G1 X116.396 Y88.936 E2.4923
G1 X116.404 Y88.948 E2.4934
G1 X116.462 Y89.049 E2.5021
G1 X116.469 Y89.062 E2.5032
G1 X116.889 Y89.884 E2.5722
G1 X116.895 Y89.898 E2.5733
G1 X116.941 Y90.000 E2.5818
G1 X116.947 Y90.013 E2.5829
G1 X117.166 Y90.573 E2.6278
G1 X117.171 Y90.587 E2.6289
G1 X117.207 Y90.693 E2.6374
G1 X117.212 Y90.707 E2.6385
G1 X117.452 Y91.554 E2.7043
G1 X117.455 Y91.568 E2.7054
G1 X117.479 Y91.670 E2.7132
G1 X117.482 Y91.683 E2.7142
G1 X117.585 Y92.233 E2.7561
G1 X117.587 Y92.247 E2.7571
G1 X117.602 Y92.350 E2.7650
G1 X117.603 Y92.364 E2.7660
G1 X117.670 Y93.069 E2.8190
G1 X117.671 Y93.076 E2.8195
G1 X117.675 Y93.130 E2.8236
G1 X117.675 Y93.137 E2.8241
G1 X117.689 Y93.427 E2.8458
G1 X117.689 Y93.434 E2.8463
G1 X117.690 Y93.488 E2.8504
G1 X117.690 Y93.495 E2.8509
G1 X117.690 Y106.514 E3.8252
G1 X117.690 Y106.521 E3.8257
G1 X117.689 Y106.578 E3.8300
G1 X117.688 Y106.586 E3.8306
G1 X117.673 Y106.893 E3.8536
G1 X117.673 Y106.900 E3.8541
G1 X117.668 Y106.957 E3.8584
G1 X117.668 Y106.965 E3.8590
G1 X117.593 Y107.710 E3.9150
G1 X117.591 Y107.724 E3.9161
G1 X117.575 Y107.833 E3.9243
G1 X117.573 Y107.847 E3.9254
G1 X117.458 Y108.424 E3.9694
G1 X117.455 Y108.438 E3.9705
G1 X117.429 Y108.545 E3.9787
G1 X117.425 Y108.558 E3.9798
G1 X117.164 Y109.431 E4.0479
G1 X117.159 Y109.445 E4.0491
G1 X117.121 Y109.554 E4.0577
G1 X117.115 Y109.568 E4.0588
G1 X116.881 Y110.136 E4.1048
G1 X116.875 Y110.150 E4.1059
G1 X116.826 Y110.254 E4.1145
G1 X116.819 Y110.267 E4.1156
G1 X116.378 Y111.093 E4.1857
G1 X116.370 Y111.106 E4.1869
G1 X116.310 Y111.207 E4.1956
G1 X116.302 Y111.219 E4.1967
G1 X115.953 Y111.738 E4.2435
G1 X115.944 Y111.750 E4.2446
G1 X115.874 Y111.844 E4.2534
G1 X115.865 Y111.855 E4.2545
G1 X115.260 Y112.582 E4.3253
G1 X115.250 Y112.594 E4.3264
G1 X115.171 Y112.680 E4.3352
G1 X115.160 Y112.691 E4.3363
G1 X114.712 Y113.130 E4.3833
G1 X114.701 Y113.140 E4.3844
G1 X114.613 Y113.218 E4.3932
G1 X114.601 Y113.228 E4.3943
G1 X113.864 Y113.816 E4.4649
G1 X113.852 Y113.825 E4.4660
G1 X113.758 Y113.892 E4.4747
G1 X113.745 Y113.901 E4.4758
G1 X113.224 Y114.237 E4.5222
G1 X113.211 Y114.244 E4.5234
G1 X113.111 Y114.302 E4.5320
G1 X113.097 Y114.309 E4.5332
G1 X112.275 Y114.729 E4.6022
G1 X112.262 Y114.735 E4.6033
G1 X112.160 Y114.781 E4.6117
G1 X112.146 Y114.787 E4.6128
G1 X111.587 Y115.006 E4.6578
G1 X111.573 Y115.011 E4.6589
G1 X111.467 Y115.047 E4.6673
G1 X111.453 Y115.052 E4.6684
G1 X110.606 Y115.292 E4.7343
G1 X110.593 Y115.295 E4.7353
G1 X110.491 Y115.319 E4.7431
G1 X110.477 Y115.322 E4.7441
G1 X109.927 Y115.425 E4.7860
G1 X109.914 Y115.427 E4.7871
G1 X109.810 Y115.442 E4.7949
G1 X109.796 Y115.443 E4.7959
G1 X109.093 Y115.510 E4.8488
G1 X109.086 Y115.511 E4.8493
G1 X109.032 Y115.514 E4.8534
G1 X109.025 Y115.515 E4.8539
G1 X108.738 Y115.528 E4.8754
G1 X108.731 Y115.529 E4.8759
G1 X108.677 Y115.530 E4.8799
G1 X108.670 Y115.530 E4.8805
G1 X100.873 Y115.537 E5.4640
G1 X100.870 Y115.537 E5.4642
G1 X100.847 Y115.536 E5.4659
G1 X100.844 Y115.536 E5.4662
G1 X100.720 Y115.534 E5.4754
G1 X100.717 Y115.534 E5.4756
G1 X100.694 Y115.533 E5.4774
G1 X100.691 Y115.533 E5.4776
G1 X100.011 Y115.506 E5.5285
G1 X99.143 Y115.535 E5.5935
G1 X99.141 Y115.536 E5.5937
G1 X99.121 Y115.536 E5.5952
G1 X99.118 Y115.536 E5.5954
G1 X99.012 Y115.538 E5.6033
G1 X99.009 Y115.538 E5.6035
G1 X98.990 Y115.538 E5.6050
G1 X98.987 Y115.538 E5.6052
G1 X91.320 Y115.530 E6.1789
G1 X91.313 Y115.530 E6.1795
G1 X91.256 Y115.529 E6.1837
G1 X91.249 Y115.528 E6.1843
G1 X90.945 Y115.513 E6.2070
G1 X90.938 Y115.512 E6.2076
G1 X90.881 Y115.508 E6.2118
G1 X90.874 Y115.508 E6.2124
G1 X90.130 Y115.433 E6.2683
G1 X90.116 Y115.431 E6.2694
G1 X90.007 Y115.415 E6.2776
G1 X89.993 Y115.413 E6.2787
G1 X89.416 Y115.299 E6.3227
G1 X89.402 Y115.295 E6.3238
G1 X89.295 Y115.269 E6.3320
G1 X89.282 Y115.265 E6.3331
G1 X88.409 Y115.004 E6.4012
G1 X88.395 Y114.999 E6.4024
G1 X88.286 Y114.961 E6.4110
G1 X88.272 Y114.955 E6.4121
G1 X87.704 Y114.721 E6.4581
G1 X87.690 Y114.715 E6.4592
G1 X87.586 Y114.666 E6.4678
G1 X87.573 Y114.659 E6.4690
G1 X86.747 Y114.218 E6.5391
G1 X86.733 Y114.210 E6.5402
G1 X86.633 Y114.150 E6.5489
G1 X86.620 Y114.142 E6.5501
G1 X86.102 Y113.793 E6.5968
G1 X86.090 Y113.784 E6.5980
G1 X85.996 Y113.714 E6.6067
G1 X85.984 Y113.705 E6.6078
G1 X85.258 Y113.100 E6.6786
G1 X85.246 Y113.090 E6.6797
G1 X85.160 Y113.011 E6.6885
G1 X85.149 Y113.000 E6.6896
G1 X84.710 Y112.552 E6.7366
G1 X84.700 Y112.541 E6.7377
G1 X84.622 Y112.453 E6.7465
G1 X84.612 Y112.441 E6.7476
G1 X84.025 Y111.704 E6.8182
G1 X84.015 Y111.692 E6.8193
G1 X83.948 Y111.598 E6.8280
G1 X83.939 Y111.586 E6.8291
G1 X83.603 Y111.064 E6.8755
G1 X83.596 Y111.051 E6.8766
G1 X83.538 Y110.951 E6.8853
G1 X83.531 Y110.938 E6.8864
G1 X83.111 Y110.116 E6.9555
G1 X83.105 Y110.102 E6.9566
G1 X83.059 Y110.000 E6.9650
G1 X83.053 Y109.986 E6.9661
G1 X82.834 Y109.427 E7.0111
G1 X82.829 Y109.413 E7.0122
G1 X82.793 Y109.307 E7.0206
G1 X82.788 Y109.293 E7.0217
G1 X82.548 Y108.446 E7.0876
G1 X82.545 Y108.432 E7.0886
G1 X82.521 Y108.330 E7.0964
G1 X82.518 Y108.317 E7.0975
G1 X82.415 Y107.767 E7.1394
G1 X82.413 Y107.753 E7.1404
G1 X82.398 Y107.650 E7.1482
G1 X82.396 Y107.636 E7.1492
G1 X82.330 Y106.932 E7.2022
G1 X82.329 Y106.925 E7.2027
G1 X82.326 Y106.871 E7.2067
G1 X82.325 Y106.864 E7.2072
G1 X82.311 Y106.577 E7.2288
G1 X82.311 Y106.570 E7.2293
G1 X82.310 Y106.516 E7.2333
G1 X82.310 Y106.509 E7.2339
G1 X82.302 Y94.652 E8.1212
G1 X82.302 Y94.646 E8.1217
G1 X82.302 Y94.620 E8.1236
G1 X82.302 Y94.620 E8.1236
G1 X82.302 Y94.615 E8.1239
G1 X82.302 Y94.614 E8.1240
G1 X82.311 Y93.441 E8.2118
G1 X82.311 Y93.434 E8.2123
G1 X82.313 Y93.381 E8.2163
G1 X82.313 Y93.374 E8.2168
G1 X82.328 Y93.090 E8.2381
G1 X82.329 Y93.083 E8.2386
G1 X82.333 Y93.031 E8.2426
G1 X82.333 Y93.024 E8.2431
G1 X82.407 Y92.290 E8.2983
G1 X82.409 Y92.276 E8.2993
G1 X82.425 Y92.167 E8.3076
G1 X82.427 Y92.153 E8.3086
G1 X82.541 Y91.576 E8.3526
G1 X82.545 Y91.562 E8.3537
G1 X82.571 Y91.456 E8.3619
G1 X82.575 Y91.442 E8.3630
G1 X82.836 Y90.569 E8.4312
G1 X82.841 Y90.555 E8.4323
G1 X82.879 Y90.447 E8.4409
G1 X82.885 Y90.433 E8.4420
G1 X83.119 Y89.864 E8.4880
G1 X83.125 Y89.850 E8.4892
G1 X83.174 Y89.746 E8.4978
G1 X83.181 Y89.733 E8.4989
G1 X83.622 Y88.907 E8.5690
G1 X83.630 Y88.894 E8.5701
G1 X83.690 Y88.793 E8.5789
G1 X83.698 Y88.781 E8.5800
G1 X84.047 Y88.262 E8.6268
G1 X84.056 Y88.250 E8.6279
G1 X84.126 Y88.156 E8.6367
G1 X84.135 Y88.144 E8.6378
G1 X84.740 Y87.418 E8.7085
G1 X84.750 Y87.406 E8.7097
G1 X84.829 Y87.320 E8.7184
G1 X84.840 Y87.309 E8.7196
G1 X85.288 Y86.870 E8.7665
G1 X85.568 Y87.156 F4800
G92 E0
G1 X85.648 Y87.085 E0.0080 F1200
G1 X85.652 Y87.082 E0.0084
G1 X86.381 Y86.501 E0.0782
G1 X86.385 Y86.497 E0.0786
G1 X86.471 Y86.436 E0.0865
G1 X86.475 Y86.433 E0.0869
G1 X86.988 Y86.102 E0.1325
G1 X86.993 Y86.100 E0.1329
G1 X87.084 Y86.047 E0.1408
G1 X87.089 Y86.045 E0.1412
G1 X87.902 Y85.630 E0.2095
G1 X87.906 Y85.628 E0.2099
G1 X88.000 Y85.586 E0.2176
G1 X88.004 Y85.584 E0.2179
G1 X88.555 Y85.368 E0.2622
G1 X88.559 Y85.366 E0.2625
G1 X88.656 Y85.333 E0.2702
G1 X88.661 Y85.332 E0.2706
G1 X89.499 Y85.094 E0.3357
G1 X89.503 Y85.093 E0.3361
G1 X89.596 Y85.071 E0.3432
G1 X89.601 Y85.070 E0.3436
G1 X90.142 Y84.969 E0.3848
G1 X90.147 Y84.968 E0.3851
G1 X90.241 Y84.955 E0.3923
G1 X90.246 Y84.954 E0.3926
G1 X90.942 Y84.888 E0.4450
G1 X90.945 Y84.888 E0.4452
G1 X90.994 Y84.885 E0.4488
G1 X90.996 Y84.885 E0.4490
G1 X91.278 Y84.871 E0.4701
G1 X91.280 Y84.871 E0.4703
G1 X91.329 Y84.870 E0.4740
G1 X91.331 Y84.870 E0.4741
G1 X99.031 Y84.862 E1.0503
G1 X99.032 Y84.862 E1.0504
G1 X99.051 Y84.862 E1.0518
G1 X99.052 Y84.862 E1.0519
G1 X99.164 Y84.864 E1.0603
G1 X99.165 Y84.864 E1.0604
G1 X99.185 Y84.865 E1.0618
G1 X99.185 Y84.865 E1.0619
G1 X100.004 Y84.894 E1.1232
G1 X100.707 Y84.867 E1.1758
G1 X100.708 Y84.867 E1.1759
G1 X100.729 Y84.866 E1.1775
G1 X100.730 Y84.866 E1.1775
G1 X100.851 Y84.864 E1.1866
G1 X100.852 Y84.864 E1.1867
G1 X100.873 Y84.863 E1.1882
G1 X100.874 Y84.863 E1.1883
G1 X108.676 Y84.870 E1.7722
G1 X108.678 Y84.870 E1.7724
G1 X108.730 Y84.871 E1.7763
G1 X108.733 Y84.871 E1.7764
G1 X109.032 Y84.886 E1.7989
